X: 21402
T: MARCH IN MASANIELLO
C: Auber
R: march
B: "Edinburgh Repository of Music" v.2 p.140 #2 - p.141 #1
F: http://digital.nls.uk/special-collections-of-printed-music/pageturner.cfm?id=87776133
Z: 2015 John Chambers <jc:trillian.mit.edu>
M: C
L: 1/8
K: G
[|\
d2 B>A G2 B>c | d6 e>f | g2 f>g B2 c>d | e4 d2 z2 |\
d2 c>B A2 e>d | d2 e>f g2 f>e | a2 A>B ^c2 B>A | d2 (3ddd d'2 z2 |
d2 B>A G2 B>c | d6 e>f | g2 f>g B2 c>d | e4 d2 z2 |\
d2 c>B A2 e>d | d2 e>f g2 f>e | a2 A>B ^c2 B>A | d2 (3ddd d'2 z |]
d |\
a2 a>^g =g>fe>d | b2 b>^a =a>gf>g | a2 a>^g =g>fe>d | b2 b>^a =a>gf>g |
d2 B>A G2 B>c | d6 e>f | g2 f>g B2 c>d | e4 d2 z2 |\
d2 c>B A2 e>d | d2^c>d f2 e>=c | e2d>B d2 c>A | G2 (3GGG g2 |]

%%sep 2 1 500
%%sep 1 1 500

